!!!!SEGMENT: pl-sa--l-1636--032_anonim--keyboard-piece.krn
!!!cenid: 17xx:739
!!!COM: Anonim
!!!COM-rismid: pe30004985
!!!CDT:
!!!CNT:
!!!OTL: [Keyboard piece]
!!!PDT:
!!!AGN: Secular
!!!SMS-siglum: PL-SA
!!!SMS-shelfmark: L 1636
!!!SMS-shelfwork: 032 W
!!!SMS-variant:
!!!SMS-altvar:
!!!NIFC-rismid: 1001076506
!!!URL-scan: http://repozytorium.nifc.pl/skany/pl-sa-nut--l1636
!!!ONB-nifc: 9v, skan 0013, s. 2
**kern	**kern
*part1	*part1
*staff2	*staff1
*Iempty	*Iempty
*I"[Keyboard]	*
*I'keyb	*
*clefF4	*clefC1
*k[b-]	*k[b-]
*F:	*F:
*M2/2	*M2/2
*met(c|)	*met(c|)
=1	=1
1r	4r
.	4f/
.	8e/L
.	8d/
.	8c/
.	8A/J
=2	=2
*	*^
4.B-\	8B-/L	2ryy
.	8c/	.
.	8d/	.
16A\LL	8e/J	.
16G\JJ	.	.
8F\L	2a/	8f\L
8C\	.	8e\
8D\	.	8f\
8E\J	.	8g\J
=3	=3	=3
*	*	*2\right
8F\L	8a/L	2f\
8G\	8b-/	.
8A\	8cc/	.
8F\J	8a/J	.
*2\right	*	*
2G\	2b-/	4f\
.	.	4e\
=4	=4	=4
2A\	2a/	8f\L
.	.	8c\
.	.	8d\
.	.	8e\J
8B-\L	2f/	2d\
8F\	.	.
8G\	.	.
8A\J	.	.
=5	=5	=5
2B-\	8f/L	2ryy
.	8d/	.
.	8g/	.
.	8f/J	.
8c\L	2g/	2e\
8G\	.	.
8c\	.	.
8B-\J	.	.
=6	=6	=6
2A\	8f/L	2ryy
.	8g/	.
.	8a/	.
.	8f/J	.
8B-\L	2g/	4f\
8G\	.	.
!LO:TX:a:t=P:problem:mixed beam	!	!
8c\	.	4e\
8C/J	.	.
*	*v	*v
=7	=7
1F 1C	1a 1f 1c
!LO:TX:a:t=P:problem:w źródle końcowa kreska taktowa :||:	!LO:TX:a:t=P:problem:w źródle końcowa kreska taktowa :||:
==;;	==;;
*-	*-
!!!system-decoration: s1,s2
!!!EED: Antoni Szymański
!!!EST: 2020-12-07
!!!ENC: Tomasz Grochalski
!!!END: 2020-06-11
